static/img/svg/bx-transfer.svg

<svg xmlns="http://www.w3.org/2000/svg" width="24" height="24" viewBox="0 0 24 24"><path d="M16 6.999L4 6.999 4 8.999 16 8.999 16 12 20 8 16 4zM8 12L4 16 8 20 8 17 20 17 20 15 8 15z"/></svg>

<svg xmlns="http://www.w3.org/2000/svg" width="24" height="24"><path d="M16 6.999H4v2h12V12l4-4-4-4zM8 12l-4 4 4 4v-3h12v-2H8z"/></svg>
